svgs/thin/divide.svg

<svg xmlns="http://www.w3.org/2000/svg" viewBox="0 0 448 512"><!-- Font Awesome Pro 6.0.0-alpha2 by @fontawesome - https://fontawesome.com License - https://fontawesome.com/license (Commercial License) --><path d="M224 192C259.375 192 288 163.375 288 128S259.375 64 224 64S160 92.625 160 128S188.625 192 224 192ZM224 80C250.467 80 272 101.533 272 128S250.467 176 224 176S176 154.467 176 128S197.533 80 224 80ZM440 248H8C3.578 248 0 251.594 0 256S3.578 264 8 264H440C444.422 264 448 260.406 448 256S444.422 248 440 248ZM224 320C188.625 320 160 348.625 160 384S188.625 448 224 448S288 419.375 288 384S259.375 320 224 320ZM224 432C197.533 432 176 410.467 176 384S197.533 336 224 336S272 357.533 272 384S250.467 432 224 432Z"/></svg>

<svg xmlns="http://www.w3.org/2000/svg" viewBox="0 0 448 512"><!--! Font Awesome Pro 6.3.0 by @fontawesome - https://fontawesome.com License - https://fontawesome.com/license (Commercial License) Copyright 2023 Fonticons, Inc. --><path d="M224 192c35.38 0 64-28.62 64-64s-28.62-64-64-64S160 92.63 160 128S188.6 192 224 192zM224 80c26.47 0 48 21.53 48 48S250.5 176 224 176S176 154.5 176 128S197.5 80 224 80zM440 248H8C3.578 248 0 251.6 0 256s3.578 8 8 8h432C444.4 264 448 260.4 448 256S444.4 248 440 248zM224 320c-35.38 0-64 28.62-64 64s28.62 64 64 64s64-28.62 64-64S259.4 320 224 320zM224 432c-26.47 0-48-21.53-48-48s21.53-48 48-48s48 21.53 48 48S250.5 432 224 432z"/></svg>
